svgs/sharp-light/house-medical-flag.svg

<svg xmlns="http://www.w3.org/2000/svg" viewBox="0 0 640 512"><!--! Font Awesome Pro 6.5.2 by @fontawesome - https://fontawesome.com License - https://fontawesome.com/license (Commercial License) Copyright 2024 Fonticons, Inc. --><path d="M480 16V32H608h32V64v96 32H608 480V512H448V192 160 64 32 16 0h32V16zM608 160V64H480v96H608zM281.6 35.2L416 136v40L272 68 96 200V480l312 0c2.7 0 5.4-.3 8-.8v32.4c-2.6 .3-5.3 .4-8 .4L80 512H64V496 224L25.6 252.8 6.4 227.2l256-192L272 28l9.6 7.2zM240 176h64 16v16 48h48 16v16 64 16H368 320v48 16H304 240 224V384 336H176 160V320 256 240h16 48V192 176h16zm16 80v16H240 192v32h48 16v16 48h32V320 304h16 48V272H304 288V256 208H256v48z"/></svg>

<svg xmlns="http://www.w3.org/2000/svg" viewBox="0 0 640 512"><!--! Font Awesome Pro 6.6.0 by @fontawesome - https://fontawesome.com License - https://fontawesome.com/license (Commercial License) Copyright 2024 Fonticons, Inc. --><path d="M480 16l0 16 128 0 32 0 0 32 0 96 0 32-32 0-128 0 0 320-32 0 0-320 0-32 0-96 0-32 0-16 0-16 32 0 0 16zM608 160l0-96L480 64l0 96 128 0zM281.6 35.2L416 136l0 40L272 68 96 200l0 280 312 0c2.7 0 5.4-.3 8-.8l0 32.4c-2.6 .3-5.3 .4-8 .4L80 512l-16 0 0-16 0-272L25.6 252.8 6.4 227.2l256-192L272 28l9.6 7.2zM240 176l64 0 16 0 0 16 0 48 48 0 16 0 0 16 0 64 0 16-16 0-48 0 0 48 0 16-16 0-64 0-16 0 0-16 0-48-48 0-16 0 0-16 0-64 0-16 16 0 48 0 0-48 0-16 16 0zm16 80l0 16-16 0-48 0 0 32 48 0 16 0 0 16 0 48 32 0 0-48 0-16 16 0 48 0 0-32-48 0-16 0 0-16 0-48-32 0 0 48z"/></svg>
